X:94
T:94. Celtic Lilt (2nds CCW, 6/8) — drone LH + arpeggio RH
T:Classic folk texture — drone held, RH arpeggio dances
C:Full 7-mode cycle through descending 2nds
M:6/8
L:1/8
Q:3/8=66
%%score {V1 V2}
V:V1 clef=treble
V:V2 clef=bass
K:C
[V:V1] "C" c e g c' g e | "B°" B d f b f d | "Am" a c' e' a' e' c' | "G" g b d' g' d' b | "F" f a c' f' c' a | "Em" e g b e' b g | "Dm" d f a d' a f | "C" c e g c' g e |]
[V:V2] [C,G,]6 | [B,,F,]6 | [A,,E,]6 | [G,,D,]6 | [F,C]6 | [E,B,]6 | [D,A,]6 | [C,G,]6 |]

